Papirus/24x24/apps/yast-vpn.svg

<svg width="24" height="24" version="1" xmlns="http://www.w3.org/2000/svg">
 <path d="m12 2.5c-2.209139 0-4 1.790861-4 4v5h8v-5c0-2.209139-1.790861-4-4-4zm0 2c1.128259 0 2 0.8717412 2 2v3h-4v-3c0-1.1282588 0.871741-2 2-2z" style="opacity:.2"/>
 <rect transform="rotate(90)" x="19.5" y="-22" width="2" height="20" rx="1" ry="1" style="opacity:.2"/>
 <rect x="11" y="16" width="2" height="4" style="fill:#828282"/>
 <path d="m12 2c-2.209139 0-4 1.790861-4 4v5h8v-5c0-2.209139-1.790861-4-4-4zm0 2c1.128259 0 2 0.8717412 2 2v3h-4v-3c0-1.1282588 0.871741-2 2-2z" style="fill:#e4e4e4"/>
 <rect transform="matrix(0,-1,-1,0,0,0)" x="-16.5" y="-18" width="7" height="12" rx=".7" ry=".857" style="opacity:.2"/>
 <rect transform="matrix(0,-1,-1,0,0,0)" x="-16" y="-18" width="8" height="12" rx=".8" ry=".857" style="fill:#fecd38"/>
 <rect x="6" y="10" width="12" height="4" rx="0" ry="0" style="fill:#ffffff;opacity:.3"/>
 <rect transform="rotate(90)" x="19" y="-22" width="2" height="20" rx="1" ry="1" style="fill:#828282"/>
 <rect x="8" y="22" width="8" height=".5" style="opacity:.2"/>
 <rect x="8" y="18" width="8" height="4" style="fill:#afafb1"/>
 <rect x="8" y="18" width="8" height=".5" style="fill:#ffffff;opacity:.2"/>
 <path d="m12 2c-2.209139 0-4 1.790861-4 4v0.5c0-2.209139 1.790861-4 4-4s4 1.790861 4 4v-0.5c0-2.209139-1.790861-4-4-4z" style="fill:#ffffff;opacity:.2"/>
</svg>

<svg xmlns="http://www.w3.org/2000/svg" width="24" height="24" version="1">
 <rect style="opacity:0.2" width="20" height="2" x="2" y="19.5" rx="1" ry="1"/>
 <rect style="fill:#828282" width="2" height="4" x="11" y="16"/>
 <path style="opacity:0.2" d="M 12,2.5 C 9.8,2.5 8,4.3 8,6.5 V 11.5 H 16 V 6.5 C 16,4.3 14.2,2.5 12,2.5 Z M 12,4.5 C 13.1,4.5 14,5.4 14,6.5 V 9.5 H 10 V 6.5 C 10,5.4 10.9,4.5 12,4.5 Z"/>
 <path style="fill:#e4e4e4" d="m12 2c-2.2 0-4 1.8-4 4v5h8v-5c0-2.2-1.8-4-4-4zm0 2c1.1 0 2 0.9 2 2v3h-4v-3c0-1.1 0.9-2 2-2z"/>
 <rect style="opacity:0.2" width="12" height="8" x="6" y="8.5" rx="1" ry="1"/>
 <rect style="fill:#fecd38" width="12" height="8" x="6" y="8" rx="1" ry="1"/>
 <rect style="fill:#ffffff;opacity:0.3" width="12" height="4" x="6" y="10"/>
 <rect style="opacity:0.2" width="8" height=".5" x="8" y="22"/>
 <rect style="fill:#828282" width="20" height="2" x="2" y="19" rx="1" ry="1"/>
 <rect style="fill:#afafb1" width="8" height="4" x="8" y="18"/>
 <rect style="fill:#ffffff;opacity:0.2" width="8" height=".5" x="8" y="18"/>
 <path style="fill:#ffffff;opacity:0.2" d="M 12,2 C 9.8,2 8,3.8 8,6 V 6.5 C 8,4.3 9.8,2.5 12,2.5 14.2,2.5 16,4.3 16,6.5 V 6 C 16,3.8 14.2,2 12,2 Z"/>
 <path style="fill:#ffffff;opacity:0.2" d="M 7 8 C 6.446 8 6 8.446 6 9 L 6 9.5 C 6 8.946 6.446 8.5 7 8.5 L 17 8.5 C 17.554 8.5 18 8.946 18 9.5 L 18 9 C 18 8.446 17.554 8 17 8 L 7 8 z"/>
</svg>
